src/images/icons/benefits/carbon_integration.svg

<svg  viewBox="0 0 744 773"  xmlns="http://www.w3.org/2000/svg">
<path d="M694.71 374.905L555.21 109.186C553.202 105.374 550.242 102.195 546.641 99.9845C543.04 97.7738 538.932 96.6132 534.75 96.6251H209.25C205.067 96.6132 200.959 97.7738 197.358 99.9845C193.757 102.195 190.797 105.374 188.79 109.186L49.2897 374.905C47.2491 378.577 46.1748 382.743 46.1748 386.983C46.1748 391.224 47.2491 395.389 49.2897 399.061L188.79 664.78C190.916 668.413 193.928 671.398 197.52 673.433C201.113 675.469 205.159 676.484 209.25 676.375H534.75C538.932 676.387 543.04 675.226 546.641 673.016C550.242 670.805 553.202 667.626 555.21 663.814L694.71 398.095C696.582 394.54 697.563 390.553 697.563 386.5C697.563 382.448 696.582 378.46 694.71 374.905ZM533.122 169.094L635.19 362.344H414.315L533.122 169.094ZM372 341.569L251.565 144.938H492.435L372 341.569ZM210.877 169.094L329.685 362.344H108.81L210.877 169.094ZM108.81 410.656H329.685L210.877 603.906L108.81 410.656ZM372 431.431L492.435 628.063H251.565L372 431.431ZM533.122 603.906L414.315 410.656H635.19L533.122 603.906Z" />
</svg>

<svg viewBox="0 0 744 773" xmlns="http://www.w3.org/2000/svg"><path d="m694.71 374.905-139.5-265.719c-2.008-3.812-4.968-6.991-8.569-9.202a22.589 22.589 0 0 0-11.891-3.359h-325.5a22.59 22.59 0 0 0-11.892 3.36c-3.601 2.21-6.561 5.389-8.568 9.201L49.29 374.905a24.885 24.885 0 0 0-3.115 12.078c0 4.241 1.074 8.406 3.115 12.078l139.5 265.719c2.126 3.633 5.138 6.618 8.73 8.653a22.554 22.554 0 0 0 11.73 2.942h325.5a22.594 22.594 0 0 0 11.891-3.359c3.601-2.211 6.561-5.39 8.569-9.202l139.5-265.719a24.903 24.903 0 0 0 2.853-11.595c0-4.052-.981-8.04-2.853-11.595ZM533.122 169.094l102.068 193.25H414.315l118.807-193.25ZM372 341.569 251.565 144.938h240.87L372 341.569ZM210.877 169.094l118.808 193.25H108.81l102.067-193.25ZM108.81 410.656h220.875l-118.808 193.25-102.067-193.25ZM372 431.431l120.435 196.632h-240.87L372 431.431Zm161.122 172.475-118.807-193.25H635.19l-102.068 193.25Z"/></svg>
